public/formular-icons/greece/var-rho.svg

<svg style="vertical-align:-.439ex" xmlns="http://www.w3.org/2000/svg" width="1.17ex" height="1.439ex" viewBox="0 -442 517 636" xmlns:xlink="http://www.w3.org/1999/xlink"><defs><path id="a" d="M205-174q-69 0-103 21T67-76q0 51 24 161t36 149q16 55 55 107 70 86 159 100h8q6 0 10 1 73 0 112-48t39-118q0-107-79-196T253-10q-27 0-49 8t-35 21-23 25-14 20l-4 9q0-1-4-20t-8-48-4-49q0-24 5-34t33-17 86-7q91 0 120-9t30-43q0-12-2-24-3-12-6-14t-17-2h-13q-6 6-6 15 0 10-27 10-21 0-51-2t-59-3Zm219 496q0 37-17 60t-50 23q-35 0-70-29t-56-76q-10-24-27-83-16-65-16-101 0-48 22-69t49-21q38 0 75 36 33 30 55 96t29 108 6 56Z"/></defs><g stroke="currentColor" fill="currentColor" stroke-width="0"><use data-c="1D71A" xlink:href="#a" transform="scale(1 -1)"/></g></svg>

<svg style="vertical-align: -0.439ex" xmlns="http://www.w3.org/2000/svg" width="1.17ex" height="1.439ex" role="img" focusable="false" viewBox="0 -442 517 636" xmlns:xlink="http://www.w3.org/1999/xlink"><defs><path id="MJX-119-TEX-I-1D71A" d="M205 -174Q136 -174 102 -153T67 -76Q67 -25 91 85T127 234Q143 289 182 341Q252 427 341 441Q343 441 349 441T359 442Q432 442 471 394T510 276Q510 169 431 80T253 -10Q226 -10 204 -2T169 19T146 44T132 64L128 73Q128 72 124 53T116 5T112 -44Q112 -68 117 -78T150 -95T236 -102Q327 -102 356 -111T386 -154Q386 -166 384 -178Q381 -190 378 -192T361 -194H348Q342 -188 342 -179Q342 -169 315 -169Q294 -169 264 -171T205 -174ZM424 322Q424 359 407 382T357 405Q322 405 287 376T231 300Q221 276 204 217Q188 152 188 116Q188 68 210 47T259 26Q297 26 334 62Q367 92 389 158T418 266T424 322Z"></path></defs><g stroke="currentColor" fill="currentColor" stroke-width="0" transform="scale(1,-1)"><g data-mml-node="math"><g data-mml-node="mi"><use data-c="1D71A" xlink:href="#MJX-119-TEX-I-1D71A"></use></g></g></g></svg>
